picto/arrow-pointing-right-and-down-red-framed.svg

<svg class="color-immutable" width="30" height="30" viewBox="0 0 30 30" fill="none" xmlns="http://www.w3.org/2000/svg"><path d="M30 0H0V30H30V0Z" fill="#9B2423"/><path d="M23.9999 24L23.8051 11.077L19.4002 6.67215L19.2063 15.6757L11.9767 8.44612L10.2113 10.2114L8.44622 11.9765L15.6758 19.2062L6.67224 19.4L11.0771 23.8049L23.9999 24Z" fill="white"/></svg>

<svg class="color-immutable" width="30" height="30" viewBox="0 0 30 30" fill="none" xmlns="http://www.w3.org/2000/svg"><g clip-path="url(#a)"><path d="M30 0H0v30h30V0Z" fill="#9B2423"/><path d="m24 24-.195-12.923L19.4 6.672l-.194 9.004-7.23-7.23-1.765 1.765-1.765 1.765 7.23 7.23-9.004.194 4.405 4.405L24 24Z" fill="#fff"/></g><defs><clipPath id="a"><path fill="#fff" d="M0 0h30v30H0z"/></clipPath></defs></svg>
